X: 19666
T: Jenn And Anthony's Wedding Day
R: waltz
M: 3/4
K: Gmajor
|:D- DE|G3 e ed|dB G2- G/A/B|A3 c B/A/G|E3 D DE|
G3 g gd|e3 g gf|fe ed dB|A4 ga|
[M:9/8] beg adf g>dB|[M:3/4] e3 d de|d3 D E<G|A3 B/c/ c/B/A|
B3 A BG|E3 B A/G/E|DE G2- GF|G3:|
g gf|e3 d eg|B>A G2 e<g|a3 d a/b/c’|b>a g2 gf|
fe ed dg|B>A G2 ed|d3 D E<G|A3 g gf|
e3 d eg|B>A G2 B<d|e3 d dB|A3 c c/B/A|
B3 A BG|E3 B A/G/E|DE G2- GF|G3 g gf|
e2 ed e<g|B>A G2 d/e/f/g/|a3 d a<c’|b>a g2- gf|
fe ed dg|B>A G2 ed|d3 D E<G|A3 {g/a/}f ga|
[M:9/8] beg adf g>dB|[M:3/4] e3 d de|d3 D E<G|A3 c c/B/A|
B3 A BG|E3 B A/G/E|DE G2- GF|G3||

